papirus/22x22/apps/dropbox.svg

<?xml version="1.0" encoding="UTF-8" standalone="no"?>
<svg id="svg2817" xmlns:rdf="http://www.w3.org/1999/02/22-rdf-syntax-ns#" xmlns="http://www.w3.org/2000/svg" height="22" width="22" version="1.0" xmlns:cc="http://creativecommons.org/ns#" xmlns:dc="http://purl.org/dc/elements/1.1/">
 <metadata id="metadata57">
  <rdf:RDF>
   <cc:Work rdf:about="">
    <dc:format>image/svg+xml</dc:format>
    <dc:type rdf:resource="http://purl.org/dc/dcmitype/StillImage"/>
    <dc:title/>
   </cc:Work>
  </rdf:RDF>
 </metadata>
 <defs id="defs2819">
  <linearGradient id="linearGradient4365" x1="24" gradientUnits="userSpaceOnUse" x2="28.615" gradientTransform="matrix(-.5 0 0 .5 23 -2)" y1="21" y2="25.313">
   <stop id="stop4361" offset="0"/>
   <stop id="stop4363" stop-opacity="0" offset="1"/>
  </linearGradient>
  <linearGradient id="linearGradient4373" x1="31.427" gradientUnits="userSpaceOnUse" x2="12.189" gradientTransform="matrix(.5 0 0 .5 -1 -2)" y1="34.828" y2="36.388">
   <stop id="stop4369" offset="0"/>
   <stop id="stop4371" stop-opacity="0" offset="1"/>
  </linearGradient>
 </defs>
 <path id="polygon3877" fill="#37a0f2" d="m11 12-4.25 2.15-1.75-0.6v2.7l6 3.75 6-3.75v-2.4l-1.75 1.1z"/>
 <path id="path4357" opacity=".05" fill="url(#linearGradient4373)" d="m11 12v8l6-3.75v-2.4l-1.75 1.1z"/>
 <g id="g4153" opacity=".2" transform="matrix(.5 0 0 .5 -1 -1.5)">
  <path id="path4155" d="m16 7-12 7.5 8 6.5 12-7-8-7zm8 7 12 7 8-6.5l-12-7.5-8 7zm12 7-12 7 8 7l12-7.5-8-6.5zm-12 7-12-7-8 6.5 12 7.5 8-7z"/>
 </g>
 <g id="g4346" fill="#99cff8" transform="matrix(.5 0 0 .5 -1 -2)">
  <path id="path4339" fill="#99cff8" d="m16 7-12 7.5 8 6.5 12-7-8-7zm8 7 12 7 8-6.5l-12-7.5-8 7zm12 7-12 7 8 7l12-7.5-8-6.5zm-12 7-12-7-8 6.5 12 7.5 8-7z"/>
 </g>
 <path id="rect4352" fill="#88c0ec" d="m17 8.5-6 3.5-6-3.5 6-3.5z"/>
 <path id="path4355" opacity=".05" fill="url(#linearGradient4365)" d="m5 8.5 6 3.5 0.000001-7z"/>
 <path id="path4267" opacity=".2" d="m5 16.25v0.5l6 3.75 6-3.75v-0.5l-6 3.75-6-3.75z"/>
</svg>

<?xml version="1.0" encoding="UTF-8" standalone="no"?>
<!-- Created with Inkscape (http://www.inkscape.org/) -->

<svg
   xmlns:dc="http://purl.org/dc/elements/1.1/"
   xmlns:cc="http://creativecommons.org/ns#"
   xmlns:rdf="http://www.w3.org/1999/02/22-rdf-syntax-ns#"
   xmlns:svg="http://www.w3.org/2000/svg"
   xmlns="http://www.w3.org/2000/svg"
   xmlns:sodipodi="http://sodipodi.sourceforge.net/DTD/sodipodi-0.dtd"
   xmlns:inkscape="http://www.inkscape.org/namespaces/inkscape"
   id="svg2817"
   height="22"
   width="22"
   version="1.0"
   inkscape:version="0.91 r13725"
   sodipodi:docname="dropbox.svg">
  <sodipodi:namedview
     pagecolor="#ffffff"
     bordercolor="#666666"
     borderopacity="1"
     objecttolerance="10"
     gridtolerance="10"
     guidetolerance="10"
     inkscape:pageopacity="0"
     inkscape:pageshadow="2"
     inkscape:window-width="1600"
     inkscape:window-height="846"
     id="namedview19"
     showgrid="false"
     inkscape:zoom="4.97"
     inkscape:cx="-29.277844"
     inkscape:cy="5.9322034"
     inkscape:window-x="0"
     inkscape:window-y="0"
     inkscape:window-maximized="1"
     inkscape:current-layer="svg2817" />
  <metadata
     id="metadata57">
    <rdf:RDF>
      <cc:Work
         rdf:about="">
        <dc:format>image/svg+xml</dc:format>
        <dc:type
           rdf:resource="http://purl.org/dc/dcmitype/StillImage" />
        <dc:title></dc:title>
      </cc:Work>
    </rdf:RDF>
  </metadata>
  <defs
     id="defs2819">
    <linearGradient
       id="linearGradient4365"
       y2="25.313"
       gradientUnits="userSpaceOnUse"
       x2="28.615"
       gradientTransform="matrix(-1,0,0,1,48,0)"
       y1="21"
       x1="24">
      <stop
         id="stop4361"
         offset="0" />
      <stop
         id="stop4363"
         stop-opacity="0"
         offset="1" />
    </linearGradient>
    <linearGradient
       id="linearGradient4373"
       y2="36.388"
       gradientUnits="userSpaceOnUse"
       x2="12.189"
       y1="34.827999"
       x1="31.427">
      <stop
         id="stop4369"
         offset="0" />
      <stop
         id="stop4371"
         stop-opacity="0"
         offset="1" />
    </linearGradient>
  </defs>
  <g
     id="g4295"
     transform="matrix(0.5,0,0,0.5,-1,-2)">
    <path
       id="polygon3877"
       d="m 24,28 -8.5,4.3 -3.5,-1.2 0,5.4 12,7.5 12,-7.5 0,-4.8 -3.5,2.2 z"
       inkscape:connector-curvature="0"
       style="fill:#37a0f2" />
    <path
       id="path4357"
       d="m 24,28 0,16 12,-7.5 0,-4.8 -3.5,2.2 z"
       style="opacity:0.05;fill:url(#linearGradient4373)"
       inkscape:connector-curvature="0" />
    <g
       id="g4346"
       style="fill:#99cff8">
      <path
         id="path4339"
         d="M 16,7 4,14.5 12,21 24,14 16,7 Z m 8,7 12,7 8,-6.5 L 32,7 24,14 Z m 12,7 -12,7 8,7 L 44,27.5 36,21 Z M 24,28 12,21 4,27.5 16,35 24,28 Z"
         inkscape:connector-curvature="0"
         style="fill:#99cff8" />
    </g>
    <path
       id="rect4352"
       d="M 36,21 24,28 12,21 24,14 Z"
       inkscape:connector-curvature="0"
       style="fill:#88c0ec" />
    <path
       id="path4355"
       d="m 12,21 12,7 1e-6,-14 z"
       style="opacity:0.05;fill:url(#linearGradient4365)"
       inkscape:connector-curvature="0" />
    <path
       id="path4267"
       d="m 12,35.5 0,1 12,7.5 12,-7.5 0,-1 L 24,43 12,35.5 Z"
       inkscape:connector-curvature="0"
       style="opacity:0.3" />
  </g>
</svg>
